X:1
T: The Grand Antiquity
C:
R:Strathspey
Q: 128
K:Dm
M:4/4
L:1/16
|:D6 E2 F3E DF3|E3D C3D E3D CE3|D6 E2 F3E DF3|E3D ^CE3 D8|
D6 E2 F3E DF3|E3D C3D E3D CE3|D6 E2 F3E DF3|E3D ^CE3 D8|
d3e f3d e^c3 A4|G3A B3G AF3 D4|B3A G3B A3G F3A|G3A G3F E8|
d3e f3d e^c3 A4|G3A B3G AF3 D4|G3A B3G A3F D3F|E3^C A,C3 D8:|
